X:1
T:Title
%%score ( 1 2 ) ( 3 4 )
L:1/8
Q:1/4=92
M:4/4
K:Bb
V:1 treble nm="Grand Piano, Soprano"
V:2 treble 
V:3 bass nm="Choir Pad, The Rock, Joseph Martine"
V:4 bass 
V:1
 [B,D]>[CE] [DF][DF] [EG][CA][DB][Ec] | [Fd]>[DB] [EG]4 [DF]2 | z4 z2 .c2 | [Fe]>[Fd] [Fc]6 | %4
w: By~Joseph~Martine,~1900 * * * * * * *||||
 [Fd]>[Ec] [DB][CA] [DB][Ec][Fd][DB] | [Ge]>[Ge] [Ge]4 [Fd]2 | z4 z2 .A2 | [Ec]>[Fd] [DB]6- | %8
w: ||||
 [DB]2 z2 z4 |] %9
w: |
V:2
 x8 | x8 | [Dc]>[DB] [EA][EG] [EA][DB]F-[Fd] | x8 | x8 | x8 | [Ec]>[DB] [EA][EG] [EF][EG]E-[EB] | %7
 x8 | x8 |] %9
V:3
 [B,,B,]>[B,,B,] [B,,B,][B,,B,] [B,,B,][B,,B,] [B,,B,]2 | z2 B,6 | z4 z2 .A,2 | %3
 [F,C]>[F,B,] [F,A,]6 | [F,A,]>[F,A,] [B,,B,][B,,B,] [B,,B,][B,,B,] [B,,B,]2 | %5
 [B,,B,]>[B,,B,] [B,,B,]6 | z4 z2 .C2 | [F,A,]>[F,A,] [B,,B,]6- | [B,,B,]2 z2 z4 |] %9
V:4
 x8 | [B,,B,]>[B,,B,] E,4 B,,2 | [B,,B,]>[B,,B,] [F,C][F,B,] [F,C][F,B,]F,-[F,B,] | x8 | x8 | x8 | %6
 [B,,B,]>[B,,B,] [F,C][F,B,] [F,A,][F,B,]F,-[F,B,] | x8 | x8 |] %9

